!!!OTL: 70. Gas-nign
!!!Genre:	Gas-nign
!!!Mode:	Freygish
!!!Listening/dance:	listening
!!!:	*C:
!!!One_Mode:	no
**kern
*thru
*I"P1
*clefG2
*>A
*k[b-e-a-]
*C:
=33:|!
!LO:TX:a:t="Segno"
4.dd
8cc
=18
8ddL
8cc
8bn
8a-J
=19
8bnL
8a-J
4g
=20
8r
8gL
8bn
8ddJ
!!!Begin-Modulation
*C:
=33:|!
*k[]
!LO:TX:a:i:t=C-major
4ee
4gg
=34
8ffL
16ggL
16ffJJ
8eeL
8ddJ
=35
8ccL
16ddL
16ccJJ
8bL
8aJ
=36
4g
8aL
8bJ
=37
4cc
4ee
=38
8ffL
8ee
8dd
8cc#XJ
=39
2dd
=40
2a
=41
4ff
4aa
=42
8ggL
8ff
8ee
8ddJ
=43
8eeL
8ddJ
4cc
=44
8ccL
16ddL
16ccJJ
8bL
8aJ
=45
8ggL
8ee
8ff
8ddJ
=46
8eeL
8cc
8dd
8bJ
=47
!LO:TX:b:Bi:t=Dal Segno al Fine
2cc
=48
4c
4r
!!!End-Modulation
==
*-
